remix/Map/route-line.svg

<svg viewBox="0 0 24 24" fill="currentColor" xmlns="http://www.w3.org/2000/svg"><path d="M4 15V8.5C4 6.01472 6.01472 4 8.5 4C10.9853 4 13 6.01472 13 8.5V15.5C13 16.8807 14.1193 18 15.5 18C16.8807 18 18 16.8807 18 15.5V8.82929C16.8348 8.41746 16 7.30622 16 6C16 4.34315 17.3431 3 19 3C20.6569 3 22 4.34315 22 6C22 7.30622 21.1652 8.41746 20 8.82929V15.5C20 17.9853 17.9853 20 15.5 20C13.0147 20 11 17.9853 11 15.5V8.5C11 7.11929 9.88071 6 8.5 6C7.11929 6 6 7.11929 6 8.5V15H9L5 20L1 15H4ZM19 7C19.5523 7 20 6.55228 20 6C20 5.44772 19.5523 5 19 5C18.4477 5 18 5.44772 18 6C18 6.55228 18.4477 7 19 7Z"/></svg>

<svg viewBox="0 0 24 24" xmlns="http://www.w3.org/2000/svg"><path fill="none" d="M0 0h24v24H0Z"/><path d="M4 15V8.5v0C4 6.01 6.01 4 8.5 4 10.98 4 13 6.01 13 8.5v7 0c0 1.38 1.11 2.5 2.5 2.5 1.38 0 2.5-1.12 2.5-2.5V8.83v0c-1.57-.56-2.39-2.27-1.83-3.83 .55-1.57 2.26-2.39 3.82-1.83 1.56.55 2.38 2.26 1.82 3.82 -.31.85-.98 1.52-1.83 1.82v6.67 0c0 2.48-2.02 4.5-4.5 4.5 -2.49 0-4.5-2.02-4.5-4.5v-7 0c0-1.39-1.12-2.5-2.5-2.5 -1.39 0-2.5 1.11-2.5 2.5v6.5h3l-4 5 -4-5h3Zm15-8v0c.55 0 1-.45 1-1 0-.56-.45-1-1-1v0c-.56 0-1 .44-1 1 0 .55.44 1 1 1Z"/></svg>
